X: 71
T: Tui chuan haozi
%%abc-version 2.0
%%abcx-abcm2ps-target-version 5.9.1 (29 Sep 2008)
%%abc-creator hum2abc beta
%%abcx-conversion-date 2013/10/02 07:52:29
%%abc-edited-by Helmut Schaffrath
%%humdrum-veritas 564960897
%%humdrum-veritas-data 492173897
%%continueall 1
%%barnumbers 0
L: 1/16
M: 2/4
K: C
A2 A G A2 e d [I:setbarnb 1]| 
c8 | 
A2 A G A2 e d | 
c8 | 
G2> c2 A2 F2 | 
E2 D CG4 | 
e2 G2 A G E D | 
C8 | 
e8 | 
e2 e dc4 | 
e2 e e d2 c2 | 
d2 e2 B A G A | 
c4c4 | 
B A G Ad4 | 
d2 e d c2 d c | 
A2 G2 E2 D E | 
G4G4 | 
e2 e dc4 | 
e2 e dc4 | 
E2c4B A | 
G8 | 
E2 c2 B2 A2 | 
B2 B AA4 | 
G2 D2 E2 E D | 
C8 | 
A2 A G A2 e d | 
c8 | 
A2 A G A2 e d | 
c8 | 
G2> c2 A2 F2 | 
E2 D CG4 | 
e2 G2 A G E D | 
C8 |]  



